app/assets/images/heroicons/mini/arrow-down-on-square.svg

<svg width="20" height="20" viewBox="0 0 20 20" fill="none" xmlns="http://www.w3.org/2000/svg">
<path d="M13.75 7H10.75V12.2955L12.6925 10.2483C12.9696 9.94039 13.4438 9.91544 13.7517 10.1925C14.0596 10.4696 14.0846 10.9438 13.8075 11.2517L10.5575 14.7517C10.4152 14.9098 10.2126 15 10 15C9.78739 15 9.58477 14.9098 9.44254 14.7517L6.19254 11.2517C5.91544 10.9438 5.9404 10.4696 6.24828 10.1925C6.55617 9.91544 7.03038 9.94039 7.30748 10.2483L9.25001 12.2955V7H10.75L10.75 1.75C10.75 1.33579 10.4142 1 10 1C9.58579 1 9.25 1.33579 9.25 1.75L9.25001 7H6.25C5.00736 7 4 8.00736 4 9.25V16.75C4 17.9926 5.00736 19 6.25 19H13.75C14.9926 19 16 17.9926 16 16.75V9.25C16 8.00736 14.9926 7 13.75 7Z" fill="#0F172A"/>
</svg>

<svg xmlns="http://www.w3.org/2000/svg" viewBox="0 0 20 20" fill="currentColor" aria-hidden="true" data-slot="icon">
  <path d="M13.75 7h-3v5.296l1.943-2.048a.75.75 0 0 1 1.114 1.004l-3.25 3.5a.75.75 0 0 1-1.114 0l-3.25-3.5a.75.75 0 1 1 1.114-1.004l1.943 2.048V7h1.5V1.75a.75.75 0 0 0-1.5 0V7h-3A2.25 2.25 0 0 0 4 9.25v7.5A2.25 2.25 0 0 0 6.25 19h7.5A2.25 2.25 0 0 0 16 16.75v-7.5A2.25 2.25 0 0 0 13.75 7Z"/>
</svg>
